**kern	**kern
*part1	*part1
*staff2	*staff1
*I"Piano	*
*clefF4	*clefG2
*k[f#c#]	*k[f#c#]
=1	=1
!	!LO:TX:a:t=betont
!	!LO:TX:b:i:t=marcato
(4DD-X') 4D-X	4A-X' 4d-X 4fn
4DD-' 4D-	4A-' 4c# 4f-X
=	=
4AAA-X' 4AA-X	4A-X' 4d-X 4e-X
4AAA-') 4AA-	4A-') 4cn 4e-
=	=
!	!LO:TX:b:i:t=marcato
!	!LO:TX:b:t=betont
(4DD-X' 4D-X	(4A-X' 4d-X 4fn
4DD-' 4D-	4A-' 4d- 4f-X
=	=
4CC#X' 4C#X	4G' 4A 4e
4DD' 4D	4Fn' 4A 4d
=	=
4EE-X' 4E-X	4F#X' 4A 4c#
4DD#X') 4D#X	4F#') 4A 4B
=	=
(4EE' 4E	(4G' 4B
4EE' 4E	4G' 4B 4c#X
=	=
4DD' 4D	4G' 4B 4d
4DD') 4D	4G') 4B 4d
=	=
*-	*-
!!!system-decoration: {(s1,s2)}
